resources/svg/solid/charging-station.svg

<svg fill="currentColor" xmlns="http://www.w3.org/2000/svg" viewBox="0 0 576 512"><!--! Font Awesome Free 6.6.0 by @fontawesome - https://fontawesome.com License - https://fontawesome.com/license/free (Icons: CC BY 4.0, Fonts: SIL OFL 1.1, Code: MIT License) Copyright 2024 Fonticons, Inc. --><path d="M96 0C60.7 0 32 28.7 32 64l0 384c-17.7 0-32 14.3-32 32s14.3 32 32 32l288 0c17.7 0 32-14.3 32-32s-14.3-32-32-32l0-144 16 0c22.1 0 40 17.9 40 40l0 32c0 39.8 32.2 72 72 72s72-32.2 72-72l0-123.7c32.5-10.2 56-40.5 56-76.3l0-32c0-8.8-7.2-16-16-16l-16 0 0-48c0-8.8-7.2-16-16-16s-16 7.2-16 16l0 48-32 0 0-48c0-8.8-7.2-16-16-16s-16 7.2-16 16l0 48-16 0c-8.8 0-16 7.2-16 16l0 32c0 35.8 23.5 66.1 56 76.3L472 376c0 13.3-10.7 24-24 24s-24-10.7-24-24l0-32c0-48.6-39.4-88-88-88l-16 0 0-192c0-35.3-28.7-64-64-64L96 0zM216.9 82.7c6 4 8.5 11.5 6.3 18.3l-25 74.9 57.8 0c6.7 0 12.7 4.2 15 10.4s.5 13.3-4.6 17.7l-112 96c-5.5 4.7-13.4 5.1-19.3 1.1s-8.5-11.5-6.3-18.3l25-74.9L96 208c-6.7 0-12.7-4.2-15-10.4s-.5-13.3 4.6-17.7l112-96c5.5-4.7 13.4-5.1 19.3-1.1z"/></svg>

<svg fill="currentColor" xmlns="http://www.w3.org/2000/svg" viewBox="0 0 576 512"><!--! Font Awesome Free 6.5.2 by @fontawesome - https://fontawesome.com License - https://fontawesome.com/license/free (Icons: CC BY 4.0, Fonts: SIL OFL 1.1, Code: MIT License) Copyright 2024 Fonticons, Inc. --><path d="M96 0C60.7 0 32 28.7 32 64V448c-17.7 0-32 14.3-32 32s14.3 32 32 32H320c17.7 0 32-14.3 32-32s-14.3-32-32-32V304h16c22.1 0 40 17.9 40 40v32c0 39.8 32.2 72 72 72s72-32.2 72-72V252.3c32.5-10.2 56-40.5 56-76.3V144c0-8.8-7.2-16-16-16H544V80c0-8.8-7.2-16-16-16s-16 7.2-16 16v48H480V80c0-8.8-7.2-16-16-16s-16 7.2-16 16v48H432c-8.8 0-16 7.2-16 16v32c0 35.8 23.5 66.1 56 76.3V376c0 13.3-10.7 24-24 24s-24-10.7-24-24V344c0-48.6-39.4-88-88-88H320V64c0-35.3-28.7-64-64-64H96zM216.9 82.7c6 4 8.5 11.5 6.3 18.3l-25 74.9H256c6.7 0 12.7 4.2 15 10.4s.5 13.3-4.6 17.7l-112 96c-5.5 4.7-13.4 5.1-19.3 1.1s-8.5-11.5-6.3-18.3l25-74.9H96c-6.7 0-12.7-4.2-15-10.4s-.5-13.3 4.6-17.7l112-96c5.5-4.7 13.4-5.1 19.3-1.1z"/></svg>
